src/lib/packages/icons/src/assets/line/inbox-empty.svg

<svg width="24" height="24" viewBox="0 0 24 24" fill="none" xmlns="http://www.w3.org/2000/svg">
<path d="M21.5581 12.301L19.396 5.814C18.869 4.232 17.568 3.25 16 3.25H8C6.433 3.25 5.132 4.232 4.604 5.814L2.44312 12.3C2.31512 12.682 2.25 13.082 2.25 13.487V18C2.25 20.418 3.582 21.75 6 21.75H18C20.418 21.75 21.75 20.418 21.75 18V13.487C21.75 13.082 21.6851 12.682 21.5581 12.301ZM6.02808 6.28799C6.34808 5.32499 7.086 4.75 8 4.75H16C16.914 4.75 17.6509 5.32499 17.9719 6.28799L19.96 12.25H17.0459C15.7959 12.25 14.6371 12.955 13.9441 14.137C13.5431 14.823 12.798 15.25 12.001 15.25C11.204 15.25 10.4591 14.823 10.0581 14.136C9.36611 12.955 8.20605 12.25 6.95605 12.25H4.04199L6.02808 6.28799ZM18 20.25H6C4.423 20.25 3.75 19.577 3.75 18V13.75H6.95508C7.66708 13.75 8.34196 14.178 8.76196 14.894C9.43096 16.039 10.672 16.75 12 16.75C13.328 16.75 14.569 16.039 15.238 14.895C15.658 14.178 16.3329 13.75 17.0449 13.75H20.25V18C20.25 19.577 19.577 20.25 18 20.25Z" fill="currentColor"/>
</svg>

<svg xmlns="http://www.w3.org/2000/svg" width="24" height="24" fill="none"><path fill="currentColor" d="m21.558 12.301-2.162-6.487C18.869 4.232 17.568 3.25 16 3.25H8c-1.567 0-2.868.982-3.396 2.564L2.444 12.3a3.732 3.732 0 0 0-.194 1.187V18c0 2.418 1.332 3.75 3.75 3.75h12c2.418 0 3.75-1.332 3.75-3.75v-4.513c0-.405-.065-.805-.192-1.186ZM6.028 6.288C6.348 5.325 7.086 4.75 8 4.75h8c.914 0 1.65.575 1.972 1.538l1.988 5.962h-2.914c-1.25 0-2.409.705-3.102 1.887a2.259 2.259 0 0 1-1.943 1.113 2.257 2.257 0 0 1-1.943-1.114c-.692-1.181-1.852-1.886-3.102-1.886H4.042l1.986-5.962ZM18 20.25H6c-1.577 0-2.25-.673-2.25-2.25v-4.25h3.205c.712 0 1.387.428 1.807 1.144A3.762 3.762 0 0 0 12 16.75a3.764 3.764 0 0 0 3.238-1.855c.42-.717 1.095-1.145 1.807-1.145h3.205V18c0 1.577-.673 2.25-2.25 2.25Z"/></svg>
